assets/symbols/mulberry/music_room.svg

<svg height="850.394" viewBox="0 0 850.394 850.394" width="850.394" xmlns="http://www.w3.org/2000/svg"><path d="m754.66 168.52v530.85h-84.66v-269.37h-162v269.37h-418.33v-530.85z" fill="#fff"/><path d="m670 698v1.37h-162v-269.37h162zm-36-158v-70l-94 2v68zm-71.89 50c0-7.38-5.42-13.39-12.11-13.39s-12.11 6.01-12.11 13.39c0 7.39 5.42 13.39 12.11 13.39s12.11-6 12.11-13.39z" fill="#33a02c"/><path d="m634 470v70h-94v-68zm-84 106.61c6.69 0 12.11 6.01 12.11 13.39 0 7.39-5.42 13.39-12.11 13.39s-12.11-6-12.11-13.39c0-7.38 5.42-13.39 12.11-13.39z" fill="#231f20"/><g fill="none" stroke="#231f20"><path d="m670 698v-268h-162v264" stroke-width="21"/><path d="m508 699.37h-418.33v-530.85h664.99v530.85h-84.66z" stroke-width="28"/></g><path d="m0 0h850.394v850.394h-850.394z" fill="none"/><g fill="#231f20"><path d="m241.7 540.917h-.98v-1.391c.35.451.67.911.98 1.391zm197.79-89.28h-4.25v-8.04c1.78 2.349 3.22 5.07 4.25 8.04zm-141.05 43.96h40.99c-4.08 8.44-11.73 14.12-20.5 14.12-8.76 0-16.41-5.68-20.49-14.12zm136.8-43.96h-39.5c3.55-10.23 12.01-17.43 21.88-17.43 7 0 13.29 3.62 17.62 9.39zm-212.11 78.54c6.99 0 13.27 3.61 17.59 9.35v1.391h-36.16c4.32-6.541 11.03-10.741 18.57-10.741zm95.8-76.84c6.98 0 13.26 3.6 17.59 9.34 3.78 4.99 6.08 11.6 6.08 18.85 0 5.12-1.15 9.931-3.17 14.07h-40.99c-2.02-4.14-3.17-8.95-3.17-14.07 0-15.57 10.6-28.19 23.66-28.19z"/><path d="m393.95 462.396c0-3.81.63-7.439 1.79-10.76h43.75c1.16 3.32 1.79 6.95 1.79 10.76 0 15.57-10.601 28.19-23.66 28.19-13.07.001-23.67-12.619-23.67-28.19zm-194.48 95.97c0-6.59 1.9-12.649 5.09-17.449h37.14c3.19 4.8 5.09 10.859 5.09 17.449 0 12.57-6.91 23.221-16.45 26.851h-14.41c-9.55-3.62-16.46-14.271-16.46-26.851zm16.46 26.851h14.41a20.05 20.05 0 0 1 -14.41 0z"/></g><g fill="none"><g stroke="#231f20"><path d="m336.52 462.677c3.78 4.99 6.08 11.6 6.08 18.85 0 5.12-1.15 9.931-3.17 14.07-4.08 8.44-11.73 14.12-20.5 14.12-8.76 0-16.41-5.68-20.49-14.12-2.02-4.14-3.17-8.95-3.17-14.07 0-15.569 10.6-28.189 23.66-28.189 6.98-.001 13.26 3.599 17.59 9.339zm102.97-11.04c1.16 3.32 1.79 6.95 1.79 10.76 0 15.57-10.601 28.19-23.66 28.19-13.07 0-23.67-12.62-23.67-28.19 0-3.81.63-7.439 1.79-10.76 3.55-10.23 12.01-17.43 21.88-17.43 7 0 13.29 3.62 17.62 9.39 1.78 2.349 3.22 5.07 4.25 8.04z" stroke-width="7"/><path d="m336.52 481.747v-128.88l98.72-28.2v137.729" stroke-width="21"/><path d="m241.7 540.917c3.19 4.8 5.09 10.859 5.09 17.449 0 12.57-6.91 23.221-16.45 26.851a20.05 20.05 0 0 1 -14.41 0c-9.55-3.62-16.46-14.271-16.46-26.851 0-6.59 1.9-12.649 5.09-17.449 4.32-6.54 11.03-10.74 18.57-10.74 6.99 0 13.27 3.61 17.59 9.35.35.45.67.91.98 1.39z" stroke-width="7"/><path d="m240.72 558.587v-128.88" stroke-width="21"/><path d="m136 451.637h334.29m-334.29 43.96h334.3m-334.3 45.32h334.3m-334.3 44.3h334.3" stroke-width="14"/></g><path d="m0 0h850.394v850.394h-850.394z"/><path d="m0 0h850.394v850.394h-850.394z"/></g></svg>

<svg xmlns="http://www.w3.org/2000/svg" width="850.394" height="850.394" viewBox="0 0 850.394 850.394" overflow="visible"><path fill="#fff" d="M754.66 168.52v530.85H670V430H508v269.37H89.67V168.52z"/><path d="M670 698v1.37H508V430h162v268zm-36-158v-70l-94 2v68h94zm-71.89 50c0-7.38-5.42-13.39-12.11-13.39s-12.11 6.01-12.11 13.39c0 7.39 5.42 13.39 12.11 13.39s12.11-6 12.11-13.39z" fill="#33a02c"/><path fill="#231f20" d="M634 470v70h-94v-68zM550 576.61c6.69 0 12.11 6.01 12.11 13.39 0 7.39-5.42 13.39-12.11 13.39s-12.11-6-12.11-13.39c0-7.38 5.42-13.39 12.11-13.39z"/><g fill="none" stroke="#231f20"><path stroke-width="21" d="M670 698V430H508v264"/><path stroke-width="28" d="M508 699.37H89.67V168.52h664.99v530.85H670z"/></g><path fill="none" d="M0 0h850.394v850.394H0z"/><g><g fill="#231f20"><path d="M241.7 540.917h-.98v-1.391c.35.451.67.911.98 1.391zM439.49 451.637h-4.25v-8.04c1.78 2.349 3.22 5.07 4.25 8.04zM298.44 495.597h40.99c-4.08 8.44-11.73 14.12-20.5 14.12-8.76 0-16.41-5.68-20.49-14.12zM435.24 451.637h-39.5c3.55-10.23 12.01-17.43 21.88-17.43 7 0 13.29 3.62 17.62 9.39v8.04zM223.13 530.177c6.99 0 13.27 3.61 17.59 9.35v1.391h-36.16c4.32-6.541 11.03-10.741 18.57-10.741zM318.93 453.337c6.98 0 13.26 3.6 17.59 9.34 3.78 4.99 6.08 11.6 6.08 18.85 0 5.12-1.15 9.931-3.17 14.07h-40.99c-2.02-4.14-3.17-8.95-3.17-14.07 0-15.57 10.6-28.19 23.66-28.19z"/><path d="M393.95 462.396c0-3.81.63-7.439 1.79-10.76h43.75c1.16 3.32 1.79 6.95 1.79 10.76 0 15.57-10.601 28.19-23.66 28.19-13.07.001-23.67-12.619-23.67-28.19zM199.47 558.366c0-6.59 1.9-12.649 5.09-17.449H241.7c3.19 4.8 5.09 10.859 5.09 17.449 0 12.57-6.91 23.221-16.45 26.851h-14.41c-9.55-3.62-16.46-14.271-16.46-26.851zM215.93 585.217h14.41a20.05 20.05 0 0 1-14.41 0z"/></g><g fill="none" stroke="#231f20"><path d="M336.52 462.677c3.78 4.99 6.08 11.6 6.08 18.85 0 5.12-1.15 9.931-3.17 14.07-4.08 8.44-11.73 14.12-20.5 14.12-8.76 0-16.41-5.68-20.49-14.12-2.02-4.14-3.17-8.95-3.17-14.07 0-15.569 10.6-28.189 23.66-28.189 6.98-.001 13.26 3.599 17.59 9.339zM439.49 451.637c1.16 3.32 1.79 6.95 1.79 10.76 0 15.57-10.601 28.19-23.66 28.19-13.07 0-23.67-12.62-23.67-28.19 0-3.81.63-7.439 1.79-10.76 3.55-10.23 12.01-17.43 21.88-17.43 7 0 13.29 3.62 17.62 9.39 1.78 2.349 3.22 5.07 4.25 8.04z" stroke-width="7"/><path stroke-width="21" d="M336.52 481.747v-128.88l98.72-28.2V462.396"/><path d="M241.7 540.917c3.19 4.8 5.09 10.859 5.09 17.449 0 12.57-6.91 23.221-16.45 26.851a20.05 20.05 0 0 1-14.41 0c-9.55-3.62-16.46-14.271-16.46-26.851 0-6.59 1.9-12.649 5.09-17.449 4.32-6.54 11.03-10.74 18.57-10.74 6.99 0 13.27 3.61 17.59 9.35.35.45.67.91.98 1.39z" stroke-width="7"/><path stroke-width="21" d="M240.72 558.587v-128.88"/><path stroke-width="14" d="M136 451.637h334.29M136 495.597h334.3M136 540.917h334.3M136 585.217h334.3"/></g></g><path fill="none" d="M0 0h850.394v850.394H0z"/><path fill="none" d="M0 0h850.394v850.394H0z"/></svg>
